X:1
T:Title
%%score 1 2
L:1/8
Q:1/4=103
M:4/4
K:Bb
V:1 treble nm="Grand Piano, Soprano"
V:2 bass nm="Choir Pad, I’ll Be Satisfied"
V:1
 [DF]2 [DB]2 [DF]2 [B,D]2 | [DF]>[_D=E] [=DF]>[_DG] [=DF]3 [DF] | [EG]2 [EB]2 [EB]3 [EG] | %3
w: By~T.~W.~Holland * * *|||
 [DF]6 z2 | [Fd]>[=E_d] [F=d]>[E_d] [F=d]2 [FB]>[Fc] | [Fd]2 [Ec]2 [DB]2 F2 | %6
w: |||
 [EG]2 [EB]2 [DB]3 [Ec] | [DB]6 z2 | [Fd]>[Ec] [DB]>[EG] [DF]2 [B,D]2 | %9
w: |||
 [DF]>[EG] [DF]>[EG] [DF]3 [B,D] | [CE]2 [A,C]2 [EA]3 [EG] | [DF]2 [CE]2 [B,D]2 [DF]2 | %12
w: |||
 [Fd]>[=E_d] [F=d]>[E_d] [F=d]2 [_Ac]2 | [GB]>[Gc] [GB]>[EG] [DF]2 F2 | [EG]2 [EB]2 [DB]3 [Ec] | %15
w: |||
 [DB]8 |] %16
w: |
V:2
 [B,,B,]2 [B,,F,]2 [B,,B,]2 [B,,F,]2 | [B,,B,]>[B,,B,] [B,,B,]>[B,,B,] [B,,B,]3 [B,,B,] | %2
 [E,B,]2 [E,G,]2 [E,G,]3 [E,B,] | [B,,B,]6 z2 | B,>B, B,>B, B,2 [D,B,]>[F,A,] | %5
 B,2 [F,A,]2 [G,B,]2 [D,B,]2 | [E,B,]2 [E,G,]2 F,3 F, | [B,,F,]6 z2 | %8
 [B,,B,]>[B,,F,] [B,,F,]>[B,,B,] [B,,B,]2 [B,,F,]2 | %9
 [B,,B,]>[B,,B,] [B,,B,]>[B,,B,] [B,,B,]3 [B,,F,] | F,2 F,2 [F,C]3 [F,A,] | %11
 [B,,B,]2 [B,,F,]2 [B,,F,]2 [B,,B,]2 | B,>B, B,>B, B,2 [D,B,]2 | %13
 [E,E]>[E,E] [E,E]>[E,B,] [B,,B,]2 [D,B,]2 | [E,B,]2 [E,G,]2 F,3 F, | [B,,F,]8 |] %16

